v3/src/assets/plugins/plugin-simmer-icon.svg

<?xml version="1.0" encoding="UTF-8"?>
<svg viewBox="0 0 24 24" version="1.1" xmlns="http://www.w3.org/2000/svg" xmlns:xlink="http://www.w3.org/1999/xlink">
    <title>9EAD9EA4-5844-4BD6-8962-8033832F70A2</title>
    <g id="Plugin-Simmer-ICON" stroke="none" fill="none" fill-rule="nonzero">
        <rect id="Rectangle" x="0" y="0" width="24" height="24"></rect>
        <path d="M5,20 C4.45,20 3.97916667,19.8041667 3.5875,19.4125 C3.19583333,19.0208333 3,18.55 3,18 L3,5 C3,4.45 3.19583333,3.97916667 3.5875,3.5875 C3.97916667,3.19583333 4.45,3 5,3 L9.5,3 C9.5,4.38071187 10.6192881,5.5 12,5.5 C13.3807119,5.5 14.5,4.38071187 14.5,3 L19,3 C19.55,3 20.0208333,3.19583333 20.4125,3.5875 C20.8041667,3.97916667 21,4.45 21,5 L21,9 C19.6192881,9 18.5,10.1192881 18.5,11.5 C18.5,12.8807119 19.6192881,14 21,14 L21,18 C21,18.55 20.8041667,19.0208333 20.4125,19.4125 C20.0208333,19.8041667 19.55,20 19,20 L14.5,20 C14.5,21.3807119 13.3807119,22.5 12,22.5 C10.6192881,22.5 9.5,21.3807119 9.5,20 L5,20 Z" id="Path" fill="#006C8E"></path>
        <path d="M7.968,5 L5.001,5 L5,17.998 L11.5,18 L11.5,20 C11.5,20.2761424 11.7238576,20.5 12,20.5 C12.2761424,20.5 12.5,20.2761424 12.5,20 L12.5,18 L18.997,18 L19,15.531 L18.8441113,15.4509218 C17.5055282,14.7189502 16.5797244,13.3265221 16.504898,11.7118357 L16.5,11.5 C16.5,9.79580706 17.4473289,8.31287464 18.8441113,7.54907822 L19,7.468 L19,5.002 L16.031,5 L15.9509218,5.15588871 C15.2189502,6.49447181 13.8265221,7.42027562 12.2118357,7.49510201 L12,7.5 C10.2958071,7.5 8.81287464,6.55267108 8.04907822,5.15588871 L7.968,5 Z" id="Path" fill="#D3F4FF"></path>
    </g>
</svg>

<svg viewBox="0 0 24 24" xmlns="http://www.w3.org/2000/svg">
    <g fill="none">
        <path d="M0 0h24v24H0z"/>
        <path d="M5 20c-.55 0-1.02-.196-1.413-.587A1.926 1.926 0 0 1 3 18V5c0-.55.196-1.02.587-1.413A1.926 1.926 0 0 1 5 3h4.5a2.5 2.5 0 1 0 5 0H19c.55 0 1.02.196 1.413.587C20.803 3.98 21 4.45 21 5v4a2.5 2.5 0 1 0 0 5v4c0 .55-.196 1.02-.587 1.413A1.926 1.926 0 0 1 19 20h-4.5a2.5 2.5 0 1 1-5 0H5z" fill="#006C8E"/>
        <path d="M7.968 5H5.001L5 17.998l6.5.002v2a.5.5 0 1 0 1 0v-2h6.497L19 15.531l-.156-.08a4.5 4.5 0 0 1-2.34-3.74L16.5 11.5c0-1.704.947-3.187 2.344-3.95L19 7.467V5.002L16.031 5l-.08.156a4.5 4.5 0 0 1-3.74 2.34L12 7.5a4.499 4.499 0 0 1-3.95-2.344L7.967 5z" fill="#D3F4FF"/>
    </g>
</svg>
